Newaita-dark/actions/32/format-text-direction-rtl.svg

<?xml version="1.0" encoding="UTF-8"?>
<svg xmlns="http://www.w3.org/2000/svg" xmlns:xlink="http://www.w3.org/1999/xlink" width="32pt" height="32pt" viewBox="0 0 32 32" version="1.1">
<g id="surface1">
<path style=" stroke:none;fill-rule:nonzero;fill:rgb(47.058824%,56.470591%,61.176473%);fill-opacity:1;" d="M 18.523438 1.574219 C 15.574219 1.574219 13.007812 2.765625 11.640625 4.546875 L 13.839844 5.925781 C 14.675781 4.90625 16.285156 4.21875 18.140625 4.21875 L 18.90625 4.21875 C 21.625 4.21875 23.816406 5.695312 23.816406 7.527344 L 23.816406 11.496094 C 22.414062 10.554688 20.558594 9.988281 18.523438 9.988281 C 14.125 9.988281 10.585938 12.640625 10.585938 15.941406 L 10.585938 16.601562 L 10.632812 16.601562 C 11.070312 19.585938 14.421875 21.894531 18.523438 21.894531 C 20.558594 21.894531 22.414062 21.324219 23.816406 20.386719 L 23.816406 21.75 L 26.460938 21.75 L 26.460938 7.527344 C 26.460938 4.226562 22.921875 1.574219 18.523438 1.574219 Z M 18.140625 12.632812 L 18.90625 12.632812 C 21.625 12.632812 23.816406 14.109375 23.816406 15.941406 C 23.816406 17.773438 21.625 19.25 18.90625 19.25 L 18.140625 19.25 C 15.421875 19.25 13.230469 17.773438 13.230469 15.941406 C 13.230469 14.109375 15.421875 12.632812 18.140625 12.632812 Z M 18.140625 12.632812 "/>
<path style=" stroke:none;fill-rule:nonzero;fill:rgb(36.078432%,41.960785%,75.294119%);fill-opacity:1;" d="M 5.957031 22.742188 C 6.320312 22.742188 6.617188 23.039062 6.617188 23.402344 L 6.617188 25.386719 L 13.894531 25.386719 C 14.261719 25.386719 14.554688 25.632812 14.554688 25.9375 L 14.554688 27.484375 C 14.554688 27.789062 14.261719 28.035156 13.894531 28.035156 L 6.617188 28.035156 L 6.617188 30.019531 C 6.617188 30.382812 6.320312 30.679688 5.957031 30.679688 L 5.953125 30.679688 C 5.816406 30.679688 5.683594 30.636719 5.570312 30.554688 L 0.941406 27.25 C 0.765625 27.125 0.664062 26.925781 0.664062 26.710938 C 0.664062 26.496094 0.765625 26.296875 0.941406 26.171875 L 5.570312 22.867188 C 5.679688 22.789062 5.808594 22.746094 5.941406 22.742188 C 5.945312 22.742188 5.949219 22.742188 5.953125 22.742188 Z M 5.957031 22.742188 "/>
</g>
</svg>

<svg xmlns="http://www.w3.org/2000/svg" width="32pt" height="32pt" viewBox="0 0 32 32"><path d="M18.523 1.574c-2.949 0-5.515 1.192-6.882 2.973l2.199 1.379c.836-1.02 2.445-1.707 4.3-1.707h.766c2.719 0 4.91 1.476 4.91 3.308v3.97c-1.402-.942-3.257-1.509-5.293-1.509-4.398 0-7.937 2.653-7.937 5.953v.66h.047c.437 2.985 3.789 5.294 7.89 5.294 2.036 0 3.891-.57 5.293-1.508v1.363h2.645V7.527c0-3.3-3.54-5.953-7.938-5.953zm-.382 11.059h.765c2.719 0 4.91 1.476 4.91 3.308 0 1.832-2.191 3.309-4.91 3.309h-.765c-2.72 0-4.91-1.477-4.91-3.309s2.19-3.308 4.91-3.308zm0 0" fill="#78909c"/><path d="M5.957 22.742c.363 0 .66.297.66.66v1.985h7.278c.367 0 .66.246.66.55v1.547c0 .305-.293.551-.66.551H6.617v1.985c0 .363-.297.66-.66.66h-.004a.65.65 0 0 1-.383-.125L.941 27.25a.658.658 0 0 1-.277-.54c0-.214.102-.413.277-.538l4.63-3.305a.671.671 0 0 1 .37-.125h.012zm0 0" fill="#5c6bc0"/></svg>
